symbolic/22x22/apps/starbound.svg

<svg xmlns="http://www.w3.org/2000/svg" width="22" height="22" version="1.1">
 <rect style="opacity:0.2" width="20" height="20" x="1" y="1.5" rx="1" ry="1"/>
 <rect style="fill:#7767c0" width="20" height="20" x="1" y="1" rx="1" ry="1"/>
 <path style="opacity:0.2" d="M 13.024,3.3625 11.96,4.9739 A 4.6428,4.6428 0 0 0 11.357,4.9286 4.6428,4.6428 0 0 0 9.578,5.2843 L 8.1359,4.0057 8.5238,5.9009 A 4.6428,4.6428 0 0 0 7.5137,6.9828 15.714,15.714 0 0 0 2.0715,6 15.714,15.714 0 0 0 1.0001,6.0537 V 6.7945 A 15.357,15.357 0 0 1 2.4287,6.7143 15.357,15.357 0 0 1 17.736,21 H 17.742 A 15.714,15.714 0 0 0 14.857,12.603 4.6428,4.6428 0 0 0 15.633,11.37 L 17.58,11.252 15.954,10.179 A 4.6428,4.6428 0 0 0 16,9.571 4.6428,4.6428 0 0 0 15.652,7.8122 L 16.937,6.3641 15.039,6.7526 A 4.6428,4.6428 0 0 0 13.14,5.2885 Z M 11.357,5.6428 A 3.9285,3.9285 0 0 1 15.286,9.571 3.9285,3.9285 0 0 1 14.411,12.033 15.714,15.714 0 0 0 8.1834,7.2646 3.9285,3.9285 0 0 1 11.357,5.6428 Z"/>
 <path style="fill:#ffffff" d="M 13.024,3.0054 11.96,4.6167 A 4.6428,4.6428 0 0 0 11.357,4.5714 4.6428,4.6428 0 0 0 9.578,4.9271 L 8.1356,3.6485 8.5235,5.5439 A 4.6428,4.6428 0 0 0 7.5135,6.6257 15.714,15.714 0 0 0 2.0714,5.6428 15.714,15.714 0 0 0 1,5.6964 V 6.4374 A 15.357,15.357 0 0 1 2.4285,6.3571 15.357,15.357 0 0 1 17.757,21 H 17.767 A 15.714,15.714 0 0 0 14.857,12.246 4.6428,4.6428 0 0 0 15.633,11.012 L 17.58,10.895 15.954,9.822 A 4.6428,4.6428 0 0 0 16,9.214 4.6428,4.6428 0 0 0 15.652,7.4549 L 16.937,6.0071 15.039,6.3953 A 4.6428,4.6428 0 0 0 13.14,4.9314 Z M 11.357,5.2857 A 3.9285,3.9285 0 0 1 15.286,9.214 3.9285,3.9285 0 0 1 14.411,11.676 15.714,15.714 0 0 0 8.1831,6.9074 3.9285,3.9285 0 0 1 11.357,5.2857 Z"/>
 <path style="opacity:0.1;fill:#ffffff" d="M 2,1 C 1.446,1 1,1.446 1,2 V 2.5 C 1,1.946 1.446,1.5 2,1.5 H 20 C 20.554,1.5 21,1.946 21,2.5 V 2 C 21,1.446 20.554,1 20,1 Z"/>
</svg>

<svg xmlns="http://www.w3.org/2000/svg" width="22" height="22"><rect style="opacity:.2" width="20" height="20" x="1" y="1.5" rx="1" ry="1"/><rect style="fill:#7767c0" width="20" height="20" x="1" y="1" rx="1" ry="1"/><path style="opacity:.2" d="M13.024 3.362 11.96 4.974a4.643 4.643 0 0 0-.603-.045 4.643 4.643 0 0 0-1.779.355L8.136 4.006 8.524 5.9a4.643 4.643 0 0 0-1.01 1.082A15.714 15.714 0 0 0 2.072 6 15.714 15.714 0 0 0 1 6.054v.74a15.357 15.357 0 0 1 1.429-.08A15.357 15.357 0 0 1 17.736 21h.006a15.714 15.714 0 0 0-2.885-8.397 4.643 4.643 0 0 0 .776-1.233l1.947-.118-1.626-1.073A4.643 4.643 0 0 0 16 9.571a4.643 4.643 0 0 0-.348-1.759l1.285-1.448-1.898.389a4.643 4.643 0 0 0-1.899-1.465zm-1.667 2.28a3.929 3.929 0 0 1 3.929 3.929 3.929 3.929 0 0 1-.875 2.462 15.714 15.714 0 0 0-6.228-4.768 3.929 3.929 0 0 1 3.174-1.622z"/><path style="fill:#fff" d="M13.024 3.005 11.96 4.617a4.643 4.643 0 0 0-.603-.046 4.643 4.643 0 0 0-1.779.356L8.136 3.65l.388 1.895a4.643 4.643 0 0 0-1.01 1.082 15.714 15.714 0 0 0-5.443-.983A15.714 15.714 0 0 0 1 5.696v.741a15.357 15.357 0 0 1 1.429-.08A15.357 15.357 0 0 1 17.756 21h.01a15.714 15.714 0 0 0-2.91-8.754 4.643 4.643 0 0 0 .776-1.234l1.947-.117-1.626-1.073A4.643 4.643 0 0 0 16 9.214a4.643 4.643 0 0 0-.348-1.76l1.285-1.447-1.898.388a4.643 4.643 0 0 0-1.899-1.464zm-1.667 2.28a3.929 3.929 0 0 1 3.929 3.929 3.929 3.929 0 0 1-.875 2.462 15.714 15.714 0 0 0-6.228-4.769 3.929 3.929 0 0 1 3.174-1.621z"/><path style="opacity:.1;fill:#fff" d="M2 1c-.554 0-1 .446-1 1v.5c0-.554.446-1 1-1h18c.554 0 1 .446 1 1V2c0-.554-.446-1-1-1z"/></svg>
